X:1
T:James Gibb editions
T:God, that madest earth and heaven - Barnby
%%score [ ( 1 2 ) ( 3 4 ) ]
L:1/8
Q:1/4=80
M:4/4
K:Eb
V:1 treble nm="Midi_74"
V:2 treble 
V:3 bass nm="Midi_74"
V:4 bass 
V:1
"^Reginald Heber\n(1783-1826)""^84. 84. 88. 84""^God, that madest earth and heaven""^Joseph Barnby\n(1838-96)"!mf! G2 G2 F2 G2 | %1
 c2"^1" B2 A2 G2 || G4"^1" E2 F2 | G8 ||!mf! G2 G2 A2 G2 | c2 B2!>(! B2 A2!>)! ||!p! F4 G2 F2 | %7
 E8 ||[M:4/4] E3 F F2 E2 | E2 G2 B2 A2 || G3 A A2 G2 | G2 =B2 d2 c2 || B3 B e2 d2 | %13
 c2 G2!>(! B2 A2!>)! ||!pp! F4 G2 F2 | E8 || E4 E4 |] %17
V:2
 E2 E2 F2 E2 | E2 D2 EF E2 || E4 B,2 D2 | E8 || E2 E2 F2 F2 | =E2 G2 G2 F2 || D4 D2 D2 | E8 || %8
[M:4/4] [B,_D]2 [B,D]2 [A,C]2 [A,C]2 | [G,_D]2 [B,E]2 E4 || [DF]2 [DF]2 [CE]2 [CE]2 | %11
 [=B,F]2 [DG]2 G4 || F3 F E2 F2 | =E2 E2 E2 F2 || D4 D2 D2 | E8 || C4 B,4 |] %17
V:3
 B,2 B,2 B,2 B,2 | A,2 F,2 C2 B,2 ||!p! B,4 G,2 B,2 | B,8 || B,2 B,2 =B,2 B,2 | C2 C2 _D2 C2 || %6
 B,4 A,2 A,2 | G,8 ||[M:4/4] E,3 F, F,2 E,2 | E,2 G,2 B,2 A,2 || %10
"^cresc.""^1 God, that madest earth and heaven,\ndarkness and light;\nwho the day for toil hast given,\nfor rest the night;\nmay thine angel-guards defend us,\nslumber sweet thy mercy send us,\nholy dreams and hopes attend us,\nthis livelong night.\n\n2 Guard us waking, guard us sleeping,\nand, when we die,\nmay we in thy mighty keeping\nall peaceful lie:\nwhen the last dread call shall wake us,\ndo not thou our God forsake us,\nbut to reign in glory take us\nwith thee on high." G,3 A, A,2 G,2 | %11
 G,2 =B,2 D2 C2 || D3 D B,2 =B,2 | C2 C2 _D2 C2 || A,4 B,2 A,2 | G,8 || A,4 G,4 |] %17
V:4
 E,2 E,2 D,2 E,2 | A,,2 B,,2 C,D, E,2 || B,,4 B,,2 B,,2 | E,8 || E,2 E,2 D,2 D,2 | %5
 C,2 =E,2 F,2 F,2 || B,,4 B,,2 B,,2 | E,8 ||[M:4/4] G,,2 G,,2 A,,2 A,,2 | B,,2 _D,2 C,4 || %10
 =B,,2 B,,2 C,2 C,2 | D,2 F,2 E,4 || B,2 A,2 G,2 G,2 | C2 C,2 F,2 F,2 || B,,4 B,,2 B,,2 | E,8 || %16
 A,,4 E,4 |] %17

